X:1
T:Miss Ogilvie of Islabank's Reel
M:C|
L:1/8
R:Reel
B:Niel Stewart - Six New Reels [2] (c. 1793-1802, p. 2)
N:No indication who composed the tune, only that it was
N:printed by Edinburgh music seller Stewart & Co. and avaialble
N:at Stewart's shop at No. 37 South Bridge Street.
Z:AK/Fiddler's Companion
K:D
A|f2 .e.d (dc)ac|d2 fd cecA|d2 fd Bdgb|agfe (fd)d:|
A|GAcA FAdA|EAcA FAdA|GAcA FAdf|(ag).f.e (fd).d.A|
GAcA FAdA|EAeA FAdA|gefd Bbge|fdea (fd).d||

